X:1
T: Piano Concerto No. 5 
T:"Emperor" Fragment from 2nd Movement
T:Ludwig van Beethoven
T:Arranged by Moritz Moszkowski
%%score { ( 1 3 ) | ( 2 4 ) }
L:1/8
Q:1/4=48
M:4/4
K:B
V:1 treble nm="Piano"
V:3 treble 
V:2 bass 
V:4 bass 
V:1
"^Adagio un poco moto"!pp! [F,B,D]4 [F,A,C]2 [F,B,D]2 | [G,B,]2 [G,CE]2 [F,A,C]4 | %2
 [F,B,F]2 [B,F]2 [B,^EG]2 [C=EA]2 | [B,DB]2 [F,B,D]2 [F,A,C]4 | F2 [Fe]2 d>B F F | %5
 F2 [Fe]2 [Dd]>B F!pp! [DF] |"_cresc." [DF]2 [C^^F]2 [B,G]2 z2 | [B,G]2 [CA]2!p! [DB]2 z2 | %8
 [B,EGB]2"_dim." [EAc]2 [DFBd]2 [B,G][EGB] | [DFB]2 [CEA]2 [B,DB]2 z2 | %10
 [B,EGB]2 [EAc]2 [DBd]2!ppp! G[EB] | [B,DB]2 z2 [CEA]2 z2 |!pp! B2 z2 e2 c2 | d2 z2 e2 c2 | %14
 d2 z2 [Bd]2[Q:1/4=40] z2 |!pp![Q:1/4=54]!ped!{/f} f'2- (3f'e'd' (3c'ba (3c'bg | %16
 (3f!ped!!ped-up!ed (3cBA (3B!ped-up!!ped!FE (3DCB,!ped-up! | %17
 A,!ped!{/e} e'- (3e'd'c' (3bab (3d'c'b!ped-up! | %18
 (3a!ped!gf (3edc (3B!ped-up!!ped!AB{/A} (3c!ped-up!!ped!AE!ped-up! | %19
 (3D!ped!d3/2c/ (3cBA A2!ped-up!!ped! G G!ped-up! | %20
 (3G!ped!e3/2d/ (3d!p!cB B2!ped-up!!ped! A A!ped-up! | %21
 (3A!ped!f3/2e/ (3e!p!d[Q:1/4=42]c!ped-up![Q:1/4=48]{/Bcd} c!ped! B2 B!ped-up! | %22
 B2!ped! B/!ped-up!!ped!c/!mp!^e/g/ b/!ped-up!!ped!c'/^e'/g'/ b'/g'/b'/e'/!ped-up! | %23
!ped! g'/f'/d'/!ped-up!c'/!ped! b/a/!p!g/!ped-up!f/!ped! d/c/B/!ped-up!A/!ped! c/B/!pp!G/!ped-up!^E/ | %24
[Q:1/4=48] F2 [CG]2 [CA]2 z2 | A2!p! B2!p! c4!ped!!ped-up! | %26
!pp!{/=a} =a'2-!ped! (3a'=g'f' (3e'=d'c' (3e'd'b!ped-up! | %27
 (3=a!ped!=gf (3e=dc (3d!ped-up!!ped!=A=G (3FE=D!ped-up! | %28
!ped! C{/_b} _b'- (3b'=a'=g' (3f'e'=d' (3c'd'^d'!ped-up! | %29
 (3f'!ped!e'=d' (3c'_b=a!ped-up!!ped! =g/f/e/!ped-up!=d/!ped! c/_B/=A/!ped-up!=G/ | %30
 F2 z =A (3A!ped!=a3/2=g/ (3g!ped-up!!ped!f[Q:1/4=36]e!ped-up! | %31
!ped!{/=def} e[Q:1/4=48]d!ped-up! z d =d'/!ped!=c'/b/=a/ =g/!ped-up!!ped!f/e/d/!ped-up! | %32
!<(! =cB z2 [B=d]2!ped!!<)! [^ce]2!ped-up! |!>(! ^e8!ped!!>)!!ped-up! | %34
 [B^df]/!pp! d'/b/d'/ f/d'/b/d'/ f/c'/a/c'/ f/d'/b/d'/ | %35
!ped! g/e'/b/!ped-up!e'/!ped! g/e'/c'/!ped-up!e'/ f/c'/a/c'/ f/c/A/G/ | %36
!p! F/!ped!!pp!f/B/f/!p! F/!ped-up!!ped!!pp!f/B/f/!p!!ped! G/!ped-up!!pp!f/B/!ped-up!f/!p! A/!ped!!pp!a/c/a/!ped-up! | %37
!p! B/!ped!!pp!b/d/b/ F/!ped-up!!ped!d/B/d/ F/!ped-up!!ped!c/A/c/ F/c/F/c/!ped-up! | %38
!p! F/!ped!!pp!e/c/e/!p! e/!ped-up!!ped!!pp!e'/c'/e'/!p! d/!ped-up!!ped!!pp!d'/b/d'/!ppp! f/!ped!!pp!d'/b/d'/!ped-up! | %39
!p! F/!ped!!pp!e/c/e/!p! e/!ped-up!!ped!!pp!e'/c'/e'/!p! d/!ped-up!!ped!!pp!d'/b/d'/!ppp! f/!ped!!pp!d'/b/d'/!ped-up! | %40
!p!!ped! g/!pp!d/B/d/!ped-up!!p!!ped! a/!pp!f/c/f/!ped-up!!p!!ped! b/!pp!f/d/f/ B/f/d/f/!ped-up! | %41
!p!!ped! b/g/e/g/!mp! c'/!p!a/e/a/!ped-up!!mp!!ped! d'/!p!b/f/b/!mp! g/e/b/!ped-up![eg]/ | %42
!ped! b/!p![df]/B/[df]/!ped-up!!mp!!ped! a/!p![cf]/A/[Af]/!ped-up!!mp!!ped! =a/!p![=cf]/=A/[cf]/!ped-up!!p!!ped! =g/!pp![Be]/=G/!ped-up![Be]/ | %43
!p!!ped! =g/!pp![Ae]/=G/[Ae]/!ped-up!!p!!ped![I:staff +1] C/!pp![I:staff -1][Ae]/G/[Ae]/!p![I:staff +1] A,/!pp![I:staff -1][Gc]/G/[Gc]/!p![I:staff +1] =G,/!pp![I:staff -1][EA]/C/!ped-up![EA]/ | %44
 x4!ped![K:bass] x4!ped-up! | %45
 z/!ped! [D,B,]/F,/D,/ B,,/D,/F,/B,/ D/B,/F,/B,/[K:treble] D/F/B/d/!ped-up! | %46
 f/!ped!d/B/F/ B/d/f/b/ d'/[Q:1/4=44]b/f/b/!8va(!!>(! d'/f'/b'/c''/!ped-up!!>)! | %47
!ppp! [b'd'']4!8va)![Q:1/4=40] z4 |] %48
V:2
 [B,,,B,,] z z2 F,, z [D,,D,] z | [E,,E,] z [C,,C,] z F,, z [E,,E,] z | %2
 [D,,D,] z [=D,,=D,] z [C,,C,] z !>![F,,,F,,] z | [B,,,B,,] z [D,,D,] z [F,,F,]4 | %4
 [A,C]2 [F,C]2 [B,,F,B,]2 z [B,D] | [A,C]2 [F,C]2 [B,,F,B,]2 z [B,,D,] | [B,,D,]2 D,2 [G,,D,]2 z2 | %7
 [G,,D,]2 [F,,F,]2 [B,,F,]2 z2 | [E,,E,]2 [C,,C,]2 [B,,,B,,]2 [E,,E,]2 | %9
 [F,,F,]2 [F,,,F,,]2 [G,,,G,,]2 z2 | [E,,E,]2 [C,,C,]2 [B,,,B,,]2 [E,,E,][G,,G,] | %11
 [F,,F,]2 z2 [F,,F,]2 z2 |!ppp! B,2 =G,2 F,3 A, | B,2 =G,2 F,3 A, | B,2 z2 B,2 z2 | %15
!p! (3B,,,!pp! D,B, (3D,F,B, (3D,F,B, (3D,F,B, | (3D,F,B, (3D,F,B, (3D,F,B, (3D,F,B, | %17
!p! (3F,,!pp! F,A, (3C,F,A, (3C,F,A, (3C,F,A, | (3C,F,A, (3C,F,A, (3C,F,A, (3C,F,A, | %19
!p! (3B,,!pp! F,B, (3B,,F,B, (3E,G,B, (3E,G,B, |!p! (3C, G,C (3C,G,C (3F,A,C (3F,A,C | %21
 (3D,A,D (3D,A,D (3G,B,D (3G,B,D |!pp! (3G,B,-"^cresc."[B,^E]- [G,B,E]2!p! C,4 | [F,A,F]2 z2 z4 | %24
!pp! [F,A,]2 [C,^E,]2 [F,,F,]2 z2 |!<(! F,2 F,2!<)! =G,4 | %26
!p! (3!arpeggio![=D,,F,]!pp! =A,=D (3F,A,D (3F,A,D (3F,A,D | (3F,=A,=D (3F,A,D (3F,A,D (3F,A,F, | %28
!p! (3=A,,!pp! =G,C (3E,G,C (3E,G,C (3E,G,C | (3E,=G,C (3E,G,C E,G,C=A,, | %30
 [F,=D]2 [=A,E]2 [DF]2 z2 | [=DF]2!pp! [E=G]2 [F=A]2 z2 | [=G,B,]2!p! [=A,=C]2 [B,=D]2 [^CE]2 | %33
 [=D^E]2!p! B,2 C2 D2 |!p! [B,^D]2 [B,D]2 [A,C]2 D2 | B,2 !arpeggio![CE]2 [A,C]4 | %36
!pp! B,4 !arpeggio![C,B,^E]2 [F,C=E]2 | [B,,F,D]2!p! [B,D]2 C4 | %38
!pp! [A,,F,]2 [F,CE]2 [B,,F,D]2[K:treble] F2 | %39
[K:bass]!pp! [A,,F,]2!pp! [F,CE]2 [B,,F,D]2[K:treble] F2 | %40
[K:bass]!pp! [G,B,D]2 [F,CE]2 [B,,F,D]2 z2 | %41
!pp!"^cresc." [E,G,B,]2!p! [C,E,F,A,]2 [B,,D,F,B,]2 [E,G,B,]2 | %42
 [B,D]2!pp!"^dimin." C2 [D,=C]2 [E,B,]2 | [B,,C,A,]2 x2 x4 | %44
 E,/[I:staff -1][C=G]/A,/[CG]/[I:staff +1] C,/[I:staff -1][A,E]/=G,/[A,E]/[I:staff +1] A,,/[I:staff -1][G,C]/E,/[G,C]/[I:staff +1] =G,,/[I:staff -1][E,A,]/C,/[E,A,]/ | %45
!pp![I:staff +1] [B,,,F,,]2 B,,,/ F,,/B,,/D,/ F,/D,/B,,/D,/ F,/[I:staff -1]B,/D/F/ | %46
[I:staff +1] x4"^poco ritard" x4 | z4 !fermata![D,B,]4 |] %48
V:3
 x8 | x8 | x8 | x8 | x4 D3 z | x8 | x8 | x8 | x8 | x8 | x6 B,2 | x8 | D2 E6 | D2 E6 | D2 z2 D2 z2 | %15
 x8 | x8 | x8 | x8 | x8 | x8 | x8 | x8 | x8 | x8 | C2 =D2 =E2 =A2 | x8 | x8 | x8 | x8 | x8 | x8 | %32
 x4 B4 | [B=d^e]2 d2!p! c2 B2 | x8 | x8 | F2 F2 G2 A2 | B2 x2 z4 | F2 e2 x2 x2 | F2 e2 x2 x2 | %40
 [Gg]2 [Aa]2 [Bb]2 z2 | [Bb]2 [cc']2 [dd']2 [Gg][Bb] | [Bb]2 [Aa]2 [=A=a]2 [=G=g]2 | %43
 [=G=g]2 x2 x4 | x4[K:bass] x4 | x6[K:treble] x2 | B/F/D/B,/ D/F/B/d/ f/d/B/d/!8va(! f/b/d'/e'/ | %47
 [bf']4!8va)! x4 |] %48
V:4
 x8 | x8 | x8 | x8 | x8 | x8 | x8 | x8 | x8 | x8 | x8 | x8 | B,,8 | B,,8 | B,,2 z2 [B,,F,]2 z2 | %15
 B,,,8 | x8 | F,,8 | x8 | B,,8 | C,8 | x8 | x8 | x8 | x8 | F,2 B,,2 =A,,4 | =D,,8 | x8 | =A,,8 | %29
 x8 | =D,2 x2 x4 | x8 | =G,8 | ^G,8 | F,6 B,2 | [E,G,]2 !arpeggio![C,G,]2 F,3 E, | D,2 =D,2 x4 | %37
 x2 D,2 [F,A,]4 | x4[I:staff -1] d>[K:treble]!p![I:staff +1]B x x | %39
[K:bass] x4[I:staff -1] d>[K:treble]!p![I:staff +1]B x x |[K:bass] x8 | x8 | F,4 B,,4 | x8 | x8 | %45
 x8 | x8 | x4 !fermata![B,,,F,,]4 |] %48

